X: 14203
T: Fuchsia Hedge, The
R: jig
M: 6/8
K: Eminor
^D|:E2e dBA|GA^A BGF|E2e dBA|BAc BGF|
E2e dBA|GA^A BGF|E2e dBA|1 GAB E2^D:|2 GAB E3||
|:ege dBA|GAB GEE|ege dBA|BAc B3|
ege dBA|GAB GEE|efg aga|1 ^abg e2B:|2 ^abg e2B||
|:egb age|egb age|egb age|f2d B3|
egb age|egb age|egb age|1 B2d e2B:|2 B2d e2^D||

